src/assets/icons/files-folders-data,fancy,folder.svg

<svg width="48" height="48" viewBox="0 0 48 48" fill="none" xmlns="http://www.w3.org/2000/svg">
<rect opacity="0.2" x="5" y="5" width="38" height="38" rx="4" fill="black"/>
<rect opacity="0.2" x="7" y="14" width="31" height="16" rx="4" fill="black"/>
<path d="M3.53119 19.499C3.28216 15.5146 3.15765 13.5224 4.3425 12.2612C5.52734 11 7.52343 11 11.5156 11H12.2752C14.0389 11 14.9208 11 15.7008 11.3492C16.4808 11.6985 17.0681 12.3563 18.2427 13.6719L20.6144 16.3281C21.7891 17.6437 22.3764 18.3015 23.1564 18.6508C23.9363 19 24.8182 19 26.5819 19H36.3056C40.3738 19 42.4079 19 43.5963 20.2916C44.7847 21.5831 44.6158 23.6102 44.278 27.6644L43.6113 35.6644C43.3212 39.1462 43.1761 40.8871 42.0279 41.9435C40.8797 43 39.1328 43 35.6389 43H12.5156C8.95428 43 7.17361 43 6.01901 41.9153C4.86441 40.8306 4.75334 39.0534 4.53119 35.499L3.53119 19.499Z" fill="black"/>
</svg>

<svg xmlns="http://www.w3.org/2000/svg" width="48" height="48" fill="none" viewBox="0 0 48 48">
  <rect width="38" height="38" x="5" y="5" fill="#000" opacity=".2" rx="4"/>
  <rect width="31" height="16" x="7" y="14" fill="#000" opacity=".2" rx="4"/>
  <path fill="#000" d="M3.531 19.499c-.249-3.984-.373-5.977.812-7.238C5.527 11 7.523 11 11.515 11h.76c1.763 0 2.645 0 3.425.35.78.348 1.367 1.006 2.542 2.322l2.371 2.656c1.175 1.316 1.762 1.974 2.542 2.323.78.349 1.662.349 3.426.349h9.724c4.068 0 6.102 0 7.29 1.292 1.189 1.291 1.02 3.318.682 7.372l-.667 8c-.29 3.482-.435 5.223-1.583 6.28C40.88 43 39.133 43 35.638 43H12.517c-3.562 0-5.342 0-6.497-1.085-1.155-1.084-1.266-2.862-1.488-6.416l-1-16z"/>
</svg>
